static/img/kroki/744388710447f31ebc6b71141d5b1296.svg

<?xml version="1.0" encoding="us-ascii" standalone="no"?><svg xmlns="http://www.w3.org/2000/svg" xmlns:xlink="http://www.w3.org/1999/xlink" contentStyleType="text/css" height="152px" preserveAspectRatio="none" style="width:232px;height:152px;" version="1.1" viewBox="0 0 232 152" width="232px" zoomAndPan="magnify"><defs/><g><!--class digitalocean_ssh_key--><g id="elem_digitalocean_ssh_key"><rect codeLine="22" fill="#3D176E" height="39.7891" id="digitalocean_ssh_key" rx="2.5" ry="2.5" style="stroke:#000D19;stroke-width:0.5;" width="218" x="7" y="106.79"/><ellipse cx="22" cy="126.6845" fill="#ADD1B2" rx="11" ry="11" style="stroke:#181818;stroke-width:1.0;"/><path d="M24.9688,132.3252 Q24.3906,132.622 23.75,132.7627 Q23.1094,132.9189 22.4063,132.9189 Q19.9063,132.9189 18.5781,131.2783 Q17.2656,129.622 17.2656,126.497 Q17.2656,123.372 18.5781,121.7158 Q19.9063,120.0595 22.4063,120.0595 Q23.1094,120.0595 23.75,120.2158 Q24.4063,120.372 24.9688,120.6689 L24.9688,123.3877 Q24.3438,122.8095 23.75,122.5439 Q23.1563,122.2627 22.5313,122.2627 Q21.1875,122.2627 20.5,123.3408 Q19.8125,124.4033 19.8125,126.497 Q19.8125,128.5908 20.5,129.6689 Q21.1875,130.7314 22.5313,130.7314 Q23.1563,130.7314 23.75,130.4658 Q24.3438,130.1845 24.9688,129.6064 L24.9688,132.3252 Z " fill="#000000"/><text fill="#D9B8FF" font-family="Helvetica" font-size="17" lengthAdjust="spacing" textLength="176" x="41" y="132.5698">digitalocean_ssh_key</text></g><!--class digitalocean_team--><g id="elem_digitalocean_team"><rect codeLine="24" fill="#3D176E" height="39.7891" id="digitalocean_team" rx="2.5" ry="2.5" style="stroke:#000D19;stroke-width:0.5;" width="196" x="18" y="7"/><ellipse cx="33" cy="26.8945" fill="#ADD1B2" rx="11" ry="11" style="stroke:#181818;stroke-width:1.0;"/><path d="M35.9688,32.5352 Q35.3906,32.832 34.75,32.9727 Q34.1094,33.1289 33.4063,33.1289 Q30.9063,33.1289 29.5781,31.4883 Q28.2656,29.832 28.2656,26.707 Q28.2656,23.582 29.5781,21.9258 Q30.9063,20.2695 33.4063,20.2695 Q34.1094,20.2695 34.75,20.4258 Q35.4063,20.582 35.9688,20.8789 L35.9688,23.5977 Q35.3438,23.0195 34.75,22.7539 Q34.1563,22.4727 33.5313,22.4727 Q32.1875,22.4727 31.5,23.5508 Q30.8125,24.6133 30.8125,26.707 Q30.8125,28.8008 31.5,29.8789 Q32.1875,30.9414 33.5313,30.9414 Q34.1563,30.9414 34.75,30.6758 Q35.3438,30.3945 35.9688,29.8164 L35.9688,32.5352 Z " fill="#000000"/><text fill="#D9B8FF" font-family="Helvetica" font-size="17" lengthAdjust="spacing" textLength="154" x="52" y="32.7798">digitalocean_team</text></g><!--link digitalocean_team to digitalocean_ssh_key--><g id="link_digitalocean_team_digitalocean_ssh_key"><path codeLine="26" d="M116,47.22 C116,62.49 116,83.92 116,100.53 " fill="none" id="digitalocean_team-to-digitalocean_ssh_key" style="stroke:#1A83AF;stroke-width:2.0;"/><polygon fill="#1A83AF" points="116,105.41,120,96.41,116,100.41,112,96.41,116,105.41" style="stroke:#1A83AF;stroke-width:2.0;"/></g><!--SRC=[XP11IyD048Nl_HKBEHSQWpQv235Gz5B4UXCfa-niiYJPBRDJInN_kurLMPEqlRxtyTwRgRH4WUs6zwB5DaTo4rThim62LgH4TfVPnf88b08LpVlcmXg-22oXHN6FpHkoBg1FF5Uwg0qw9wuywmwAkYIxDV8OpmJ67Imqx55P0ywbpAJpBQCtHYPvh5IVx8S6aGpdDpZ0B4ca7sGscyamwICNgyxU_KUiz3kAq7_QqZ8EPWuglgcpApl26pauzDS_kV4HfDIc5DUUzdJSH0RfdxwgGDfTHojed5_Z60ajxpUO3Qx299PgFWe_d8ABxdD2wb8pDBP0C6ldgdMDU_4n-Hop6G_9dJTKfoz1cCPHkdYTtevcVW40]--></g></svg>

<svg xmlns="http://www.w3.org/2000/svg" width="232" height="152" preserveAspectRatio="none" style="width:232px;height:152px"><rect width="218" height="39.789" x="7" y="106.79" fill="#3D176E" rx="2.5" ry="2.5" style="stroke:#000d19;stroke-width:.5"/><circle cx="22" cy="126.684" r="11" fill="#ADD1B2" style="stroke:#181818;stroke-width:1"/><path d="M24.969 132.325q-.578.297-1.219.438-.64.156-1.344.156-2.5 0-3.828-1.64-1.312-1.657-1.312-4.782t1.312-4.781q1.328-1.656 3.828-1.656.703 0 1.344.156.656.156 1.219.453v2.719q-.625-.579-1.219-.844-.594-.281-1.219-.281-1.343 0-2.031 1.078-.688 1.062-.688 3.156 0 2.094.688 3.172.688 1.062 2.031 1.062.625 0 1.219-.265.594-.281 1.219-.86v2.72Z"/><text x="41" y="132.57" fill="#D9B8FF" font-family="Helvetica" font-size="17" textLength="176">digitalocean_ssh_key</text><rect width="196" height="39.789" x="18" y="7" fill="#3D176E" rx="2.5" ry="2.5" style="stroke:#000d19;stroke-width:.5"/><circle cx="33" cy="26.895" r="11" fill="#ADD1B2" style="stroke:#181818;stroke-width:1"/><path d="M35.969 32.535q-.578.297-1.219.438-.64.156-1.344.156-2.5 0-3.828-1.64-1.312-1.657-1.312-4.782t1.312-4.781q1.328-1.656 3.828-1.656.703 0 1.344.156.656.156 1.219.453v2.719q-.625-.578-1.219-.844-.594-.281-1.219-.281-1.343 0-2.031 1.078-.688 1.062-.688 3.156 0 2.094.688 3.172.688 1.062 2.031 1.062.625 0 1.219-.265.594-.281 1.219-.86v2.72Z"/><text x="52" y="32.78" fill="#D9B8FF" font-family="Helvetica" font-size="17" textLength="154">digitalocean_team</text><path fill="none" d="M116 47.22v53.31" style="stroke:#1a83af;stroke-width:2"/><path fill="#1A83AF" d="m116 105.41 4-9-4 4-4-4 4 9z" style="stroke:#1a83af;stroke-width:2"/></svg>
